X:952
T:The Christening
B:O'Neill's 952
Z:Transcribed by Dan G. Petersen, dangp@post6.tele.dk
M:6/8
L:1/8
K:A
a|cAA cAA|BGG d2B|cAA cAA|cAA g2e|
dBB cAA|BGG d2B|(c/d/e).c d2B|cAA A2:|
e|d2e g2a|BGB d2B|d2e g2a|gfe g2e|
dBB cAA|BGG d2B|(c/d/e).c d2B|cAA A2:|


